X:60
T:60 Falmouth Assembly
C:Welch MS
I:abc2nwc
M:6/8
L:1/8
K:G
d|BGG GAB|cAA ABc|dgd dBG|A3G2d|BGG GAB|cAA ABc|dgd dBG|A3G2:|
d|g2d e2d|edc BAG|gag fed|e3d2d/2c/2|BAG GAB|cBA ABc|dgd dBG|A3G2:|


